svg/aws-eni.svg

<?xml version="1.0" encoding="UTF-8"?>
<svg xmlns="http://www.w3.org/2000/svg" xmlns:xlink="http://www.w3.org/1999/xlink" width="32" height="32" viewBox="0 0 32 32">
<path fill-rule="evenodd" fill="rgb(61.56863%, 31.37255%, 14.509805%)" fill-opacity="1" d="M 0 16.632812 C 0 8.117188 7.136719 1.261719 16 1.261719 C 24.863281 1.261719 32 8.117188 32 16.632812 C 32 25.144531 24.863281 32 16 32 C 7.136719 32 0 25.144531 0 16.632812 M 0 15.367188 L 32 15.367188 L 32 16.632812 L 0 16.632812 Z M 0 15.367188 "/>
<path fill-rule="evenodd" fill="rgb(96.078432%, 52.156866%, 21.176471%)" fill-opacity="1" d="M 0 15.367188 C 0 6.855469 7.136719 0 16 0 C 24.863281 0 32 6.855469 32 15.367188 C 32 23.882812 24.863281 30.738281 16 30.738281 C 7.136719 30.738281 0 23.882812 0 15.367188 M 0 15.367188 "/>
<path fill-rule="evenodd" fill="rgb(100%, 100%, 100%)" fill-opacity="1" d="M 5.089844 8.804688 L 5.089844 9.9375 L 6.546875 9.9375 L 6.546875 22.0625 L 5.089844 22.0625 L 5.089844 23.195312 L 7.90625 23.195312 L 7.90625 8.804688 Z M 26.910156 10.375 L 9.179688 10.375 L 9.179688 19.882812 L 10.910156 19.882812 L 10.910156 21.796875 L 18.457031 21.796875 L 18.457031 19.882812 L 21.179688 19.882812 L 21.179688 21.796875 L 24.453125 21.796875 L 24.453125 19.882812 L 26.910156 19.882812 Z M 26.910156 10.375 "/>
<path fill-rule="evenodd" fill="rgb(85.09804%, 65.490198%, 25.490198%)" fill-opacity="1" d="M 11.089844 11.773438 L 24.726562 11.773438 L 24.726562 18.398438 L 11.089844 18.398438 Z M 11.089844 11.773438 "/>
<path fill-rule="evenodd" fill="rgb(100%, 100%, 100%)" fill-opacity="1" d="M 12.546875 12.816406 L 17.273438 12.816406 L 17.273438 17.261719 L 12.546875 17.261719 Z M 18.730469 12.816406 L 23.457031 12.816406 L 23.457031 17.261719 L 18.730469 17.261719 Z M 18.730469 12.816406 "/>
</svg>

<svg role="img" viewBox="0 0 32 32" xmlns="http://www.w3.org/2000/svg"><path d="M0 16.633C0 8.117 7.137 1.262 16 1.262s16 6.855 16 15.37S24.863 32 16 32 0 25.145 0 16.633m0-1.266h32v1.266H0Zm0 0" fill="rgb(61.56863%, 31.37255%, 14.509805%)" fill-rule="evenodd"/><path d="M0 15.367C0 6.855 7.137 0 16 0s16 6.855 16 15.367c0 8.516-7.137 15.371-16 15.371S0 23.883 0 15.368m0 0" fill="rgb(96.078432%, 52.156866%, 21.176471%)" fill-rule="evenodd"/><path d="M5.09 8.805v1.133h1.457v12.125H5.09v1.132h2.816V8.805Zm21.82 1.57H9.18v9.508h1.73v1.914h7.547v-1.914h2.723v1.914h3.273v-1.914h2.457Zm0 0" fill="rgb(100%, 100%, 100%)" fill-rule="evenodd"/><path d="M11.09 11.773h13.637v6.625H11.09Zm0 0" fill="rgb(85.09804%, 65.490198%, 25.490198%)" fill-rule="evenodd"/><path d="M12.547 12.816h4.726v4.446h-4.726Zm6.183 0h4.727v4.446H18.73Zm0 0" fill="rgb(100%, 100%, 100%)" fill-rule="evenodd"/></svg>
